svg/nature/pig_fill.svg

<?xml version="1.0" encoding="UTF-8"?>
<svg width="24px" height="24px" viewBox="0 0 24 24" version="1.1" xmlns="http://www.w3.org/2000/svg" xmlns:xlink="http://www.w3.org/1999/xlink">
    <title>pig_fill</title>
    <g id="页面-1" stroke="none" stroke-width="1" fill="none" fill-rule="evenodd">
        <g id="pig_fill">
            <path d="M24,0 L24,24 L0,24 L0,0 L24,0 Z M12.5934901,23.257841 L12.5819402,23.2595131 L12.5108777,23.2950439 L12.4918791,23.2987469 L12.4918791,23.2987469 L12.4767152,23.2950439 L12.4056548,23.2595131 C12.3958229,23.2563662 12.3870493,23.2590235 12.3821421,23.2649074 L12.3780323,23.275831 L12.360941,23.7031097 L12.3658947,23.7234994 L12.3769048,23.7357139 L12.4804777,23.8096931 L12.4953491,23.8136134 L12.4953491,23.8136134 L12.5071152,23.8096931 L12.6106902,23.7357139 L12.6232938,23.7196733 L12.6232938,23.7196733 L12.6266527,23.7031097 L12.609561,23.275831 C12.6075724,23.2657013 12.6010112,23.2592993 12.5934901,23.257841 L12.5934901,23.257841 Z M12.8583906,23.1452862 L12.8445485,23.1473072 L12.6598443,23.2396597 L12.6498822,23.2499052 L12.6498822,23.2499052 L12.6471943,23.2611114 L12.6650943,23.6906389 L12.6699349,23.7034178 L12.6699349,23.7034178 L12.678386,23.7104931 L12.8793402,23.8032389 C12.8914285,23.8068999 12.9022333,23.8029875 12.9078286,23.7952264 L12.9118235,23.7811639 L12.8776777,23.1665331 C12.8752882,23.1545897 12.8674102,23.1470016 12.8583906,23.1452862 L12.8583906,23.1452862 Z M12.1430473,23.1473072 C12.1332178,23.1423925 12.1221763,23.1452606 12.1156365,23.1525954 L12.1099173,23.1665331 L12.0757714,23.7811639 C12.0751323,23.7926639 12.0828099,23.8018602 12.0926481,23.8045676 L12.108256,23.8032389 L12.3092106,23.7104931 L12.3186497,23.7024347 L12.3186497,23.7024347 L12.3225043,23.6906389 L12.340401,23.2611114 L12.337245,23.2485176 L12.337245,23.2485176 L12.3277531,23.2396597 L12.1430473,23.1473072 Z" id="MingCute"></path>
            <path d="M18.6154,4.2118 C18.8581,4.40131 19,4.69207 19,5.00000129 L19,7.10104 C19.7855,7.90265 20.3805,8.89354 20.7099,10.0000013 L21,10.0000013 C21.5523,10.0000013 22,10.4477 22,11.0000013 L22,14.0000013 C22,14.3788 21.786,14.725 21.4472,14.8944 L19.9907,15.6227 C19.4822,16.462 18.8026,17.1855 18,17.7452 L18,19.0000013 C18,19.5523 17.5523,20.0000013 17,20.0000013 L14,20.0000013 C13.4477,20.0000013 13,19.5523 13,19.0000013 L12,19.0000013 C12,19.5523 11.5523,20.0000013 11,20.0000013 L8,20.0000013 C7.44772,20.0000013 7,19.5523 7,19.0000013 L7,17.7452 C5.69203,16.8329 4.70908,15.484 4.26352,13.9089 C2.96275,13.5806 2,12.4027 2,11.0000013 L2,10.5000013 C2,9.94772 2.44772,9.50000129 3,9.50000129 C3.55228,9.50000129 4,9.94772 4,10.5000013 L4,11.0000013 C4,11.0942 4.01304,11.1855 4.03741,11.2719 C4.40159,7.74806 7.37987,5.00000129 11,5.00000129 L13.8769,5.00000129 L17.7575,4.02987 C18.0562,3.95518 18.3727,4.0223 18.6154,4.2118 Z M16.5,9 C15.6716,9 15,9.67157 15,10.5 C15,11.3284 15.6716,12 16.5,12 C17.3284,12 18,11.3284 18,10.5 C18,9.67157 17.3284,9 16.5,9 Z" id="形状" fill="#09244B" fill-rule="nonzero"></path>
        </g>
    </g>
</svg>

<svg xmlns="http://www.w3.org/2000/svg" width="24" height="24"><g fill="none" fill-rule="evenodd"><path d="M24 0v24H0V0h24ZM12.593 23.258l-.011.002-.071.035-.02.004-.014-.004-.071-.035c-.01-.004-.019-.001-.024.005l-.004.01-.017.428.005.02.01.013.104.074.015.004.012-.004.104-.074.012-.016.004-.017-.017-.427c-.002-.01-.009-.017-.017-.018Zm.265-.113-.013.002-.185.093-.01.01-.003.011.018.43.005.012.008.007.201.093c.012.004.023 0 .029-.008l.004-.014-.034-.614c-.003-.012-.01-.02-.02-.022Zm-.715.002a.023.023 0 0 0-.027.006l-.006.014-.034.614c0 .012.007.02.017.024l.015-.002.201-.093.01-.008.004-.011.017-.43-.003-.012-.01-.01-.184-.092Z"/><path fill="#09244B" fill-rule="nonzero" d="M18.615 4.212A1 1 0 0 1 19 5v2.101A6.996 6.996 0 0 1 20.71 10H21a1 1 0 0 1 1 1v3a1 1 0 0 1-.553.894l-1.456.729A7.032 7.032 0 0 1 18 17.745V19a1 1 0 0 1-1 1h-3a1 1 0 0 1-1-1h-1a1 1 0 0 1-1 1H8a1 1 0 0 1-1-1v-1.255a7.013 7.013 0 0 1-2.736-3.836A3.001 3.001 0 0 1 2 11v-.5a1 1 0 0 1 2 0v.5a1 1 0 0 0 .037.272A7 7 0 0 1 11 5h2.877l3.88-.97a1 1 0 0 1 .858.182ZM16.5 9a1.5 1.5 0 1 0 0 3 1.5 1.5 0 0 0 0-3Z"/></g></svg>
